svgs/sharp-solid/house-medical.svg

<svg xmlns="http://www.w3.org/2000/svg" viewBox="0 0 576 512"><!--! Font Awesome Pro 6.6.0 by @fontawesome - https://fontawesome.com License - https://fontawesome.com/license (Commercial License) Copyright 2024 Fonticons, Inc. --><path d="M511.8 287.6l64.2 0 0-47.6L288.4 0 0 240l0 47.6 64.1 0 0 224.4 448.7 0-1-224.4zM256 192l64 0 0 64 64 0 0 64-64 0 0 64-64 0 0-64-64 0 0-64 64 0 0-64z"/></svg>

<svg xmlns="http://www.w3.org/2000/svg" viewBox="0 0 576 512"><!--! Font Awesome Pro 6.4.2 by @fontawesome - https://fontawesome.com License - https://fontawesome.com/license (Commercial License) Copyright 2023 Fonticons, Inc. --><path d="M511.8 287.6H576V240L288.4 0 0 240v47.6H64.1V512H512.8l-1-224.4zM256 192h64v64h64v64H320v64H256V320H192V256h64V192z"/></svg>
